source/images/icons/icon-editorial/play.svg

<?xml version="1.0" encoding="UTF-8"?>
<svg width="80px" height="80px" viewBox="0 0 80 80" version="1.1" xmlns="http://www.w3.org/2000/svg" xmlns:xlink="http://www.w3.org/1999/xlink">
    <!-- Generator: Sketch 55.2 (78181) - https://sketchapp.com -->
    <title>Illustrative Icons/Play</title>
    <desc>Created with Sketch.</desc>
    <g id="Illustrative-Icons/Play" stroke="none" stroke-width="1" fill="none" fill-rule="evenodd">
        <path d="M73.0983334,34.2297708 C69.7316667,16.1647708 52.2966667,4.20310414 34.2283334,7.56643747 C27.8197792,8.75037912 21.9015524,11.794701 17.2116667,16.3197708 C16.548925,16.9585802 16.529524,18.0136958 17.1683333,18.6764375 C17.8071427,19.3391792 18.8622583,19.3585802 19.525,18.7197708 C23.7443131,14.6492534 29.0682671,11.9104747 34.8333334,10.8447708 C51.0933334,7.81643747 66.7866667,18.5814375 69.8166667,34.8447708 C72.8457346,51.1306552 62.1016818,66.7893661 45.8166667,69.8231042 C29.5616667,72.8481042 13.8683333,62.0831042 10.8333333,45.8314375 C10.6533173,44.9386133 9.78991831,44.3556423 8.89451104,44.5223356 C7.99910378,44.6890289 7.40333312,45.543646 7.55666667,46.4414375 C10.5466667,62.4464375 24.5833334,73.6647728 40.3166667,73.6647728 C50.2271393,73.6681117 59.6251938,69.2614095 65.9606584,61.6404276 C72.2961231,54.0194457 74.9119506,43.9745515 73.0983334,34.2314375 L73.0983334,34.2297708 Z M8.66666667,41.9981042 C9.58714125,41.9981042 10.3333333,41.2519121 10.3333333,40.3314375 C10.3333333,39.4109629 9.58714125,38.6647708 8.66666667,38.6647708 C7.74619208,38.6647708 7,39.4109629 7,40.3314375 C7,41.2519121 7.74619208,41.9981042 8.66666667,41.9981042 Z M32,57.8314375 C31.0795254,57.8314375 30.3333331,57.0852455 30.3333331,56.1647709 L30.3333331,24.4981042 C30.3330138,23.8856903 30.668584,23.3224322 31.2072931,23.0311534 C31.7460023,22.7398746 32.4010624,22.7675012 32.9133334,23.1031042 L57.0800001,38.9364375 C57.5501327,39.2444078 57.8333885,39.7685807 57.8333885,40.3306042 C57.8333885,40.8926276 57.5501327,41.4168006 57.0800001,41.7247708 L32.9133334,57.5581042 C32.6419975,57.7362024 32.3245644,57.8314375 32,57.8314375 Z M33.6666667,27.5881042 L33.6666667,53.0881042 L53.1266667,40.3314375 L33.6666667,27.5881042 Z" id="Shape-color" fill="#ADB5BD"></path>
    </g>
</svg>

<svg width="80" height="80">
    <title>
        Illustrative Icons/Play
    </title>
    <path d="M73.098 34.23C69.732 16.165 52.297 4.203 34.228 7.566a33.192 33.192 0 0 0-17.016 8.754 1.667 1.667 0 0 0 2.313 2.4 29.868 29.868 0 0 1 15.308-7.875c16.26-3.029 31.954 7.736 34.984 24 3.029 16.286-7.715 31.944-24 34.978-16.255 3.025-31.949-7.74-34.984-23.992a1.667 1.667 0 0 0-3.276.61c2.99 16.005 17.026 27.224 32.76 27.224A33.333 33.333 0 0 0 73.098 34.23v-.001zM8.667 41.998a1.667 1.667 0 1 0 0-3.333 1.667 1.667 0 0 0 0 3.333zM32 57.831c-.92 0-1.667-.746-1.667-1.666V24.498a1.667 1.667 0 0 1 2.58-1.395L57.08 38.936a1.667 1.667 0 0 1 0 2.789L32.913 57.558a1.665 1.665 0 0 1-.913.273zm1.667-30.243v25.5l19.46-12.757-19.46-12.743z" fill="#ADB5BD" fill-rule="evenodd"/>
</svg>
